places/16/folder-network.svg

<?xml version="1.0" encoding="UTF-8" standalone="no"?>
<!-- Created with Inkscape (http://www.inkscape.org/) -->

<svg
   xmlns:dc="http://purl.org/dc/elements/1.1/"
   xmlns:cc="http://creativecommons.org/ns#"
   xmlns:rdf="http://www.w3.org/1999/02/22-rdf-syntax-ns#"
   xmlns:svg="http://www.w3.org/2000/svg"
   xmlns="http://www.w3.org/2000/svg"
   xmlns:sodipodi="http://sodipodi.sourceforge.net/DTD/sodipodi-0.dtd"
   xmlns:inkscape="http://www.inkscape.org/namespaces/inkscape"
   version="1.1"
   width="16"
   height="16"
   id="svg13094"
   inkscape:version="0.48.4 r9939"
   sodipodi:docname="folder-network.svg"
   inkscape:export-filename="folder.png"
   inkscape:export-xdpi="90"
   inkscape:export-ydpi="90">
  <sodipodi:namedview
     pagecolor="#ffffff"
     bordercolor="#666666"
     borderopacity="1"
     objecttolerance="10"
     gridtolerance="10"
     guidetolerance="10"
     inkscape:pageopacity="0"
     inkscape:pageshadow="2"
     inkscape:window-width="1920"
     inkscape:window-height="1017"
     id="namedview6"
     showgrid="true"
     inkscape:snap-bbox="true"
     inkscape:bbox-paths="true"
     inkscape:bbox-nodes="true"
     inkscape:snap-bbox-edge-midpoints="true"
     inkscape:snap-bbox-midpoints="true"
     inkscape:object-paths="true"
     inkscape:snap-intersection-paths="true"
     inkscape:object-nodes="true"
     inkscape:snap-smooth-nodes="true"
     inkscape:snap-midpoints="true"
     inkscape:snap-object-midpoints="true"
     inkscape:snap-center="true"
     inkscape:zoom="20.85965"
     inkscape:cx="9.9430993"
     inkscape:cy="10.867479"
     inkscape:window-x="-5"
     inkscape:window-y="26"
     inkscape:window-maximized="1"
     inkscape:current-layer="svg13094">
    <inkscape:grid
       type="xygrid"
       id="grid2983"
       empspacing="5"
       visible="true"
       enabled="true"
       snapvisiblegridlinesonly="true" />
  </sodipodi:namedview>
  <defs
     id="defs7" />
  <metadata
     id="metadata13099">
    <rdf:RDF>
      <cc:Work
         rdf:about="">
        <dc:format>image/svg+xml</dc:format>
        <dc:type
           rdf:resource="http://purl.org/dc/dcmitype/StillImage" />
        <dc:title />
      </cc:Work>
    </rdf:RDF>
  </metadata>
  <path
     style="font-size:medium;font-style:normal;font-variant:normal;font-weight:normal;font-stretch:normal;text-indent:0;text-align:start;text-decoration:none;line-height:normal;letter-spacing:normal;word-spacing:normal;text-transform:none;direction:ltr;block-progression:tb;writing-mode:lr-tb;text-anchor:start;baseline-shift:baseline;color:#000000;fill:#f1f3f5;fill-opacity:0.90288714000000003;stroke:none;stroke-width:2;marker:none;visibility:visible;display:inline;overflow:visible;enable-background:accumulate;font-family:Sans;-inkscape-font-specification:Sans;fill-rule:nonzero"
     d="M 1.8125 0 A 1.00009 1.00009 0 0 0 1 1 L 1 11 A 1.00009 1.00009 0 0 0 2 12 L 6.28125 12 A 0.50606671 0.50606671 0 0 1 6.28125 11 L 3 11 A 1.0001 1.0001 0 0 1 2 10 L 2 2 A 1.0001 1.0001 0 0 1 2.8125 1 A 1.0001 1.0001 0 0 1 2.90625 1 A 1.0001 1.0001 0 0 1 3 1 L 13.03125 1 A 1.0001 1.0001 0 0 1 14.03125 2 L 14.03125 10 A 1.0001 1.0001 0 0 1 13.03125 11 L 9.65625 11 A 0.50219246 0.50219246 0 0 1 9.65625 12 L 14 12 A 1.00009 1.00009 0 0 0 15 11 L 15 1 A 1.00009 1.00009 0 0 0 14 0 L 2 0 A 1.00009 1.00009 0 0 0 1.90625 0 A 1.00009 1.00009 0 0 0 1.8125 0 z M 9.65625 12 A 0.50219246 0.50219246 0 0 1 9.5 12 L 6.5 12 A 0.50606671 0.50606671 0 0 1 6.28125 12 A 0.50606671 0.50606671 0 0 0 6.28125 13 A 0.50219246 0.50219246 0 0 1 6.34375 13 A 0.50606671 0.50606671 0 0 0 6.375 13 A 0.50219246 0.50219246 0 0 1 6.40625 13 A 0.50606671 0.50606671 0 0 0 6.4375 13 A 0.50005 0.50005 0 0 1 6.5 13 L 9.5 13 A 0.50219246 0.50219246 0 0 1 9.53125 13 A 0.50219246 0.50219246 0 0 0 9.5625 13 A 0.50219246 0.50219246 0 0 1 9.625 13 A 0.50219246 0.50219246 0 0 0 9.65625 13 A 0.50219246 0.50219246 0 0 0 9.65625 12 z M 0.28125 15 A 0.50606671 0.50606671 0 0 0 0.5 16 L 7 16 L 7 15 L 0.5 15 A 0.50004997 0.50004997 0 0 0 0.46875 15 A 0.50219246 0.50219246 0 0 1 0.40625 15 A 0.50219246 0.50219246 0 0 0 0.375 15 A 0.50219246 0.50219246 0 0 1 0.34375 15 A 0.50606671 0.50606671 0 0 0 0.28125 15 z M 9 15 L 9 16 L 15.5 16 A 0.50004997 0.50004997 0 0 0 15.59375 15 A 0.50004997 0.50004997 0 0 0 15.5625 15 A 0.50005 0.50005 0 0 1 15.5 15 L 9 15 z "
     id="rect3000" />
  <path
     id="path3836"
     d="M 2.8125,1 A 1.0001,1.0001 0 0 0 2,2 l 0,8 a 1.0001,1.0001 0 0 0 1,1 l 3.34375,0 A 0.50606671,0.50606671 0 1 0 6.5,12 l 3,0 a 0.50219246,0.50219246 0 1 0 0.09375,-1 l 3.4375,0 a 1.0001,1.0001 0 0 0 1,-1 l 0,-8 a 1.0001,1.0001 0 0 0 -1,-1 L 3,1 A 1.0001,1.0001 0 0 0 2.90625,1 1.0001,1.0001 0 0 0 2.8125,1 z M 4,3 l 8.03125,0 0,6 L 4,9 4,3 z m 2.34375,10 a 0.50219246,0.50219246 0 0 0 0,1 L 0.5,14 A 0.50005,0.50005 0 0 0 0.40625,14 0.50219246,0.50219246 0 1 0 0.5,15 l 6.5,0 0,1 0.5,0 1,0 0.5,0 0,-1 6.5,0 a 0.50005,0.50005 0 1 0 0,-1 L 9.59375,14 A 0.50219246,0.50219246 0 1 0 9.5,13 l -3,0 a 0.50005,0.50005 0 0 0 -0.09375,0 0.50219246,0.50219246 0 0 0 -0.0625,0 z"
     style="font-size:medium;font-style:normal;font-variant:normal;font-weight:normal;font-stretch:normal;text-indent:0;text-align:start;text-decoration:none;line-height:normal;letter-spacing:normal;word-spacing:normal;text-transform:none;direction:ltr;block-progression:tb;writing-mode:lr-tb;text-anchor:start;baseline-shift:baseline;color:#000000;fill:#27303a;fill-opacity:0.75328081999999996;stroke:none;stroke-width:1;marker:none;visibility:visible;display:inline;overflow:visible;enable-background:accumulate;font-family:Sans;-inkscape-font-specification:Sans;fill-rule:nonzero;stroke-linecap:butt;stroke-linejoin:miter;stroke-miterlimit:4;stroke-opacity:1;stroke-dasharray:none;stroke-dashoffset:0"
     inkscape:connector-curvature="0" />
</svg>

<?xml version="1.0" encoding="UTF-8"?>
<!-- Created with Inkscape (http://www.inkscape.org/) -->
<svg width="16" height="16" version="1.1" xmlns="http://www.w3.org/2000/svg" xmlns:cc="http://creativecommons.org/ns#" xmlns:dc="http://purl.org/dc/elements/1.1/" xmlns:rdf="http://www.w3.org/1999/02/22-rdf-syntax-ns#">
	<defs>
		<radialGradient id="b" cx="-9356.4" cy="5054" r="9" gradientTransform="matrix(1.1111,0,0,2.421,10404,-12231)" gradientUnits="userSpaceOnUse">
			<stop stop-color="#213851" stop-opacity=".9059" offset="0"/>
			<stop stop-color="#27303a" stop-opacity="0" offset="1"/>
		</radialGradient>
		<radialGradient id="a" cx="34.118" cy="13.139" r="9.0713" gradientTransform="matrix(1.6537 0 0 1.4274 -3411.8 2087)" gradientUnits="userSpaceOnUse">
			<stop stop-color="#ffffff" stop-opacity=".8252" offset="0"/>
			<stop stop-color="#ffffff" stop-opacity=".6051" offset="1"/>
		</radialGradient>
	</defs>
	<metadata>
		<rdf:RDF>
			<cc:Work rdf:about="">
				<dc:format>image/svg+xml</dc:format>
				<dc:type rdf:resource="http://purl.org/dc/dcmitype/StillImage"/>
				<dc:title/>
			</cc:Work>
		</rdf:RDF>
	</metadata>
	<path d="m1.8125 0a1.0001 1.0001 0 0 0-0.8125 1v10a1.0001 1.0001 0 0 0 1 1h4.2812a0.50607 0.50607 0 0 1 0-1h-3.2812a1.0001 1.0001 0 0 1-1-1v-8a1.0001 1.0001 0 0 1 0.8125-1 1.0001 1.0001 0 0 1 0.09375 0 1.0001 1.0001 0 0 1 0.09375 0h10.031a1.0001 1.0001 0 0 1 1 1v8a1.0001 1.0001 0 0 1-1 1h-3.375a0.50219 0.50219 0 0 1 0 1h4.3438a1.0001 1.0001 0 0 0 1-1v-10a1.0001 1.0001 0 0 0-1-1h-12a1.0001 1.0001 0 0 0-0.09375 0 1.0001 1.0001 0 0 0-0.09375 0zm7.8438 12a0.50219 0.50219 0 0 1-0.15625 0h-3a0.50607 0.50607 0 0 1-0.21875 0 0.50607 0.50607 0 0 0 0 1 0.50219 0.50219 0 0 1 0.0625 0 0.50607 0.50607 0 0 0 0.03125 0 0.50219 0.50219 0 0 1 0.03125 0 0.50607 0.50607 0 0 0 0.03125 0 0.50005 0.50005 0 0 1 0.0625 0h3a0.50219 0.50219 0 0 1 0.03125 0 0.50219 0.50219 0 0 0 0.03125 0 0.50219 0.50219 0 0 1 0.0625 0 0.50219 0.50219 0 0 0 0.03125 0 0.50219 0.50219 0 0 0 0-1zm-9.375 3a0.50607 0.50607 0 0 0 0.21875 1h6.5v-1h-6.5a0.50005 0.50005 0 0 0-0.03125 0 0.50219 0.50219 0 0 1-0.0625 0 0.50219 0.50219 0 0 0-0.03125 0 0.50219 0.50219 0 0 1-0.03125 0 0.50607 0.50607 0 0 0-0.0625 0zm8.7188 0v1h6.5a0.50005 0.50005 0 0 0 0.09375-1 0.50005 0.50005 0 0 0-0.03125 0 0.50005 0.50005 0 0 1-0.0625 0h-6.5z" color="#000000" fill="url(#a)" style="block-progression:tb;font-variant-east_asian:normal;paint-order:normal;text-indent:0;text-transform:none"/>
	<path d="m2.8125 1a1.0001 1.0001 0 0 0-0.8125 1v8a1.0001 1.0001 0 0 0 1 1h3.3438a0.50607 0.50607 0 1 0 0.15625 1h3a0.50219 0.50219 0 1 0 0.09375-1h3.4375a1.0001 1.0001 0 0 0 1-1v-8a1.0001 1.0001 0 0 0-1-1h-10.031a1.0001 1.0001 0 0 0-0.09375 0 1.0001 1.0001 0 0 0-0.09375 0zm1.1875 2h8.0312v6h-8.0312zm2.3438 10a0.50219 0.50219 0 0 0 0 1h-5.8438a0.50005 0.50005 0 0 0-0.09375 0 0.50219 0.50219 0 1 0 0.09375 1h6.5v1h0.5 1 0.5v-1h6.5a0.50005 0.50005 0 1 0 0-1h-5.9062a0.50219 0.50219 0 1 0-0.09375-1h-3a0.50005 0.50005 0 0 0-0.09375 0 0.50219 0.50219 0 0 0-0.0625 0z" color="#000000" fill="#090d11" fill-opacity=".76621" style="paint-order:normal;text-decoration-line:none;text-indent:0;text-transform:none"/>
	<path d="m2.8125 1a1.0001 1.0001 0 0 0-0.8125 1v8a1.0001 1.0001 0 0 0 1 1h3.3438a0.50607 0.50607 0 1 0 0.15625 1h3a0.50219 0.50219 0 1 0 0.09375-1h3.4375a1.0001 1.0001 0 0 0 1-1v-8a1.0001 1.0001 0 0 0-1-1h-10.031a1.0001 1.0001 0 0 0-0.09375 0 1.0001 1.0001 0 0 0-0.09375 0zm1.1875 2h8.0312v6h-8.0312v-6zm2.3438 10a0.50219 0.50219 0 0 0 0 1h-5.8438a0.50005 0.50005 0 0 0-0.09375 0 0.50219 0.50219 0 1 0 0.09375 1h6.5v1h0.5 1 0.5v-1h6.5a0.50005 0.50005 0 1 0 0-1h-5.9062a0.50219 0.50219 0 1 0-0.09375-1h-3a0.50005 0.50005 0 0 0-0.09375 0 0.50219 0.50219 0 0 0-0.0625 0z" color="#000000" fill="url(#b)" style="block-progression:tb;font-variant-east_asian:normal;paint-order:normal;text-indent:0;text-transform:none"/>
</svg>
